X: 42568
T: When Sick Is It Tea That You Want?
R: jig
M: 6/8
K: Dmajor
Add dcB|AdB AFG|Add cde|fdB BAF|
Add dcB|AdB AFG|Add cde|fdc d2B|
Add dcB|AdB AFG|Add cde|f3 edB|
Add dcB|AdB AFG|Add cde|fdc dfg||
afd d2=c|BGF Gga|bge e2d|cdB ABG|
FAd fdB|AdB AFG|Add cde|fdc dfg|
afd dc=c|BGF Gga|bge e_ed|cdB ABG|
FAd fed|Bgf edB|Add cde|fdc d3||

